epam-assets/icon-sources/18/add-below.svg

<svg width="18" height="18" viewBox="0 0 18 18" fill="none" xmlns="http://www.w3.org/2000/svg">
<g id="18/add-below">
<g id="icon">
<path d="M9.74987 9.75L8.24987 9.75L8.24987 6.75L5.24987 6.75L5.24987 5.25L8.24987 5.25L8.24987 2.25H9.74987V5.25L12.7499 5.25L12.7499 6.75H9.74987L9.74987 9.75Z" fill="#6C6F80"/>
<path d="M4.4696 11.5302L8.99993 16.0605L13.5303 11.5302L12.4696 10.4696L8.99993 13.9392L5.53026 10.4696L4.4696 11.5302Z" fill="#6C6F80"/>
</g>
</g>
</svg>

<svg xmlns="http://www.w3.org/2000/svg" width="18" height="18" fill="none" viewBox="0 0 18 18">
  <path fill="#6C6F80" d="M9.75 9.75h-1.5v-3h-3v-1.5h3v-3h1.5v3h3v1.5h-3v3Zm-5.28 1.78L9 16.06l4.53-4.53-1.06-1.06L9 13.94l-3.47-3.47-1.06 1.06Z"/>
</svg>
